Numix-GalliumOS/64/mimetypes/application-postscript.svg

<svg xmlns="http://www.w3.org/2000/svg" xmlns:xlink="http://www.w3.org/1999/xlink" width="64px" height="64px" viewBox="0 0 64 64" version="1.1">
<g id="surface1">
<path style=" stroke:none;fill-rule:nonzero;fill:rgb(92.156863%,10.588235%,13.72549%);fill-opacity:1;" d="M 10.671875 0 C 9.296875 0 8 1.355469 8 2.789062 L 8 61.210938 C 8 62.566406 9.375 64 10.671875 64 L 53.328125 64 C 54.625 64 56 62.566406 56 61.210938 L 56 18 L 38 0 Z M 10.671875 0 "/>
<path style=" stroke:none;fill-rule:nonzero;fill:rgb(0%,0%,0%);fill-opacity:0.196078;" d="M 42 18 L 56 32 L 56 18 Z M 42 18 "/>
<path style=" stroke:none;fill-rule:nonzero;fill:rgb(100%,100%,100%);fill-opacity:0.392157;" d="M 38 0 L 55.984375 18 L 40.757812 18 C 39.410156 18 38 16.574219 38 15.226562 Z M 38 0 "/>
<path style=" stroke:none;fill-rule:nonzero;fill:rgb(100%,100%,100%);fill-opacity:1;" d="M 23.132812 33.71875 C 24.164062 33.765625 25.296875 34.421875 26.140625 34.984375 C 28.609375 36.625 30.585938 39.351562 30.195312 42.476562 C 30.5625 41.882812 30.585938 41.015625 30.585938 40.328125 C 30.585938 38.132812 29.40625 35.875 27.914062 34.34375 C 27.421875 33.828125 26.898438 33.242188 26.25 32.929688 L 33.601562 24.226562 L 35.367188 22.140625 C 35.5 21.976562 35.953125 21.609375 35.851562 21.367188 C 35.765625 21.148438 35.34375 21.007812 35.140625 20.914062 C 34.914062 20.8125 34.507812 20.59375 34.25 20.6875 C 34 20.78125 33.78125 21.148438 33.609375 21.351562 L 32.257812 22.929688 L 25.898438 30.390625 L 24.015625 32.59375 C 23.71875 32.945312 23.328125 33.296875 23.132812 33.71875 Z M 23.132812 33.71875 "/>
<path style=" stroke:none;fill-rule:nonzero;fill:rgb(100%,100%,100%);fill-opacity:1;" d="M 18.96875 36.265625 C 21.492188 33.578125 23.726562 30.578125 26.148438 27.789062 L 29.203125 24.171875 C 29.90625 23.367188 30.742188 22.546875 31.304688 21.632812 C 30.9375 21.523438 30.101562 21.453125 29.75 21.632812 C 29.375 21.820312 29.0625 22.335938 28.789062 22.648438 L 27.046875 24.625 C 26.796875 24.929688 26.492188 25.398438 26.140625 25.585938 C 25.625 25.84375 24.695312 25.742188 24.132812 25.757812 L 22.078125 25.921875 C 20.546875 26.03125 18.796875 26.03125 18.039062 27.679688 C 17.429688 28.992188 17.523438 30.875 17.460938 32.304688 C 17.335938 35.304688 17.234375 38.351562 17.515625 41.34375 C 17.632812 42.632812 17.492188 44.265625 18.148438 45.414062 C 18.789062 46.539062 20.023438 46.78125 21.1875 46.890625 C 23.445312 47.101562 26.148438 47.039062 27.96875 45.453125 C 30.132812 43.570312 29.828125 40.210938 27.859375 38.359375 C 25.710938 36.328125 21.765625 35.304688 18.96875 36.265625 Z M 18.96875 36.265625 "/>
<path style=" stroke:none;fill-rule:nonzero;fill:rgb(100%,100%,100%);fill-opacity:1;" d="M 26.578125 47.164062 C 26.992188 47.34375 27.6875 47.28125 28.140625 47.28125 L 30.976562 47.335938 C 34.570312 47.335938 38.117188 47.109375 41.703125 46.945312 C 43.40625 46.867188 45.328125 46.804688 46.03125 44.90625 C 46.484375 43.703125 46.398438 42.164062 46.484375 40.898438 C 46.6875 37.960938 46.765625 34.953125 46.492188 32.023438 C 46.359375 30.65625 46.523438 28.945312 45.929688 27.679688 C 45.015625 25.710938 42.242188 25.859375 40.421875 25.8125 C 39.96875 25.796875 39.132812 25.53125 38.71875 25.734375 C 38.40625 25.882812 38.21875 26.695312 38.070312 27 L 36.460938 30.554688 C 34.554688 34.765625 32.773438 39.078125 30.710938 43.210938 C 29.90625 44.8125 28.460938 46.835938 26.578125 47.164062 Z M 26.578125 47.164062 "/>
</g>
</svg>

<svg xmlns="http://www.w3.org/2000/svg" viewBox="0 0 64 64">
 <g>
  <path d="m 10.672 0 c -1.375 0 -2.672 1.355 -2.672 2.789 l 0 58.42 c 0 1.355 1.375 2.789 2.672 2.789 l 42.656 0 c 1.297 0 2.672 -1.434 2.672 -2.789 l 0 -43.21 l -18 -18 m -27.328 0" style="fill:#eb1a22;fill-opacity:1;stroke:none;fill-rule:nonzero"/>
  <path d="m 42 18 l 14 14 l 0 -14 m -14 0" style="fill:#000;fill-opacity:0.196;stroke:none;fill-rule:nonzero"/>
  <path d="m 38 0 l 17.984 18 l -15.227 0 c -1.348 0 -2.758 -1.426 -2.758 -2.773 m 0 -15.227" style="fill:#fff;fill-opacity:0.392;stroke:none;fill-rule:nonzero"/>
  <path d="m 23.13 33.719 c 1.031 0.047 2.164 0.703 3.01 1.266 c 2.469 1.641 4.445 4.367 4.055 7.492 c 0.367 -0.594 0.391 -1.461 0.391 -2.148 c 0 -2.195 -1.18 -4.453 -2.672 -5.984 c -0.492 -0.516 -1.016 -1.102 -1.664 -1.414 l 7.352 -8.703 l 1.766 -2.086 c 0.133 -0.164 0.586 -0.531 0.484 -0.773 c -0.086 -0.219 -0.508 -0.359 -0.711 -0.453 c -0.227 -0.102 -0.633 -0.32 -0.891 -0.227 c -0.25 0.094 -0.469 0.461 -0.641 0.664 l -1.352 1.578 l -6.359 7.461 l -1.883 2.203 c -0.297 0.352 -0.688 0.703 -0.883 1.125 m 0 0" style="fill:#fff;fill-opacity:1;stroke:none;fill-rule:nonzero"/>
  <path d="m 18.969 36.27 c 2.523 -2.688 4.758 -5.688 7.18 -8.477 l 3.055 -3.617 c 0.703 -0.805 1.539 -1.625 2.102 -2.539 c -0.367 -0.109 -1.203 -0.18 -1.555 0 c -0.375 0.188 -0.688 0.703 -0.961 1.016 l -1.742 1.977 c -0.25 0.305 -0.555 0.773 -0.906 0.961 c -0.516 0.258 -1.445 0.156 -2.01 0.172 l -2.055 0.164 c -1.531 0.109 -3.281 0.109 -4.04 1.758 c -0.609 1.313 -0.516 3.195 -0.578 4.625 c -0.125 3 -0.227 6.05 0.055 9.04 c 0.117 1.289 -0.023 2.922 0.633 4.07 c 0.641 1.125 1.875 1.367 3.039 1.477 c 2.258 0.211 4.961 0.148 6.781 -1.438 c 2.164 -1.883 1.859 -5.242 -0.109 -7.094 c -2.148 -2.031 -6.094 -3.055 -8.891 -2.094 m 0 0" style="fill:#fff;fill-opacity:1;stroke:none;fill-rule:nonzero"/>
  <path d="m 26.578 47.16 c 0.414 0.18 1.109 0.117 1.563 0.117 l 2.836 0.055 c 3.594 0 7.141 -0.227 10.727 -0.391 c 1.703 -0.078 3.625 -0.141 4.328 -2.039 c 0.453 -1.203 0.367 -2.742 0.453 -4.01 c 0.203 -2.938 0.281 -5.945 0.008 -8.875 c -0.133 -1.367 0.031 -3.078 -0.563 -4.344 c -0.914 -1.969 -3.688 -1.82 -5.508 -1.867 c -0.453 -0.016 -1.289 -0.281 -1.703 -0.078 c -0.313 0.148 -0.5 0.961 -0.648 1.266 l -1.609 3.555 c -1.906 4.211 -3.688 8.523 -5.75 12.656 c -0.805 1.602 -2.25 3.625 -4.133 3.953 m 0 0" style="fill:#fff;fill-opacity:1;stroke:none;fill-rule:nonzero"/>
 </g>
</svg>
